assets/topilis-bb2527ab.svg

<svg xmlns="http://www.w3.org/2000/svg" width="200pt" height="52pt" viewBox="0 0 200 52"><path fill="#010100" d="M0 2.11c9.61.03 19.23-.04 28.84.03-.01 1.42-.02 2.84-.04 4.25-3.98.03-7.97.03-11.96 0 .06 11.58 0 23.16.03 34.74-1.7 0-3.4.01-5.1.02-.01-11.57-.02-23.14.01-34.71C7.85 6.4 3.93 6.4 0 6.41v-4.3Zm73.86.64c6.07-1.01 12.68-1.65 18.5.76 7.43 3.22 7.79 14.94 1.33 19.32-4.21 3.01-9.71 3.22-14.68 2.69-.04 5.21 0 10.42-.02 15.64-1.67-.01-3.35-.03-5.02-.03-.07-12.79.09-25.59-.11-38.38m5.15 3.45c.03 5.11-.13 10.23.1 15.34 3.45.18 7.2.59 10.33-1.2 4.47-2.42 5.1-9.63 1.03-12.71-3.35-2.29-7.65-1.79-11.46-1.43Z" opacity="1.00"/><path d="M108.52 2.82c1.68.04 3.37.03 5.06.06-.03 13.01.03 26.01-.03 39.02-1.69-.04-3.37-.08-5.06-.11.06-12.99.02-25.98.03-38.97Zm48.52 0c1.69.02 3.38.01 5.07-.01-.08 13-.07 26.01-.01 39.01-1.7 0-3.39-.01-5.09-.03.05-12.99-.02-25.98.03-38.97Zm20.81 3.85c4.86-4.43 12.5-4.1 18.16-1.42-.4 1.28-.79 2.56-1.18 3.84-3.9-1.3-8.45-2.68-12.3-.49-3.06 1.7-3.7 6.44-1.08 8.82 3.96 3.44 9.8 3.84 13.48 7.71 4.25 4.41 3.35 12.59-1.86 15.88-5.7 3.7-13.25 2.88-19.2.17.39-1.43.81-2.86 1.18-4.3 4.3 2.03 9.57 3.68 14.08 1.35 3.89-1.83 4.49-7.89 1.09-10.47-3.82-3.14-9.3-3.5-12.78-7.17-3.81-3.65-3.61-10.5.41-13.92Z" opacity="1.00"/><path fill="#010101" d="M127.98 2.88c1.69-.03 3.38-.05 5.07-.1-.06 11.61-.05 23.23-.01 34.84 5.56-.01 11.12.03 16.67 0 .02 1.4.03 2.8.05 4.2-7.26.06-14.52.01-21.78.03-.01-12.99-.02-25.98 0-38.97Z" opacity="1.00"/><path fill="#072179" d="M30.45 14.6c.12-.96.22-1.91.3-2.87 7.12.22 14.24-.22 21.35.21 9.8.89 17.74 10.28 17.11 20.08-.18 7.61-5.26 14.51-12.19 17.45-2.59.79-5.27 1.33-7.99 1.3-9.86.01-19.72.06-29.58.07-.15-1-.56-2.16.43-2.89 6.51-.37 13.04-.05 19.57-.18-.97-.74-1.94-1.49-2.91-2.23-2.58-.04-5.17.02-7.74-.22-.21-.89-.36-1.79-.44-2.71 1.82-.06 3.63-.09 5.45-.12-4.2-6.23-4.43-14.5-.9-21.08-3.17.1-6.36.1-9.51-.31.24-.61.7-1.83.93-2.44 3.57-.45 7.17-.14 10.76-.26 1.4-1.24 2.83-2.45 4.27-3.64-2.97.02-5.95 0-8.91-.16m15.76.59c-6.59 1.36-11.89 7.17-12.69 13.84-1.49 8.84 5.55 17.82 14.43 18.66 9.48 1.34 18.73-7.09 18.31-16.64.21-10.03-10.29-18.49-20.05-15.86Z" opacity="1.00"/><path fill="#f9feff" d="M46.21 15.19c9.76-2.63 20.26 5.83 20.05 15.86.42 9.55-8.83 17.98-18.31 16.64-8.88-.84-15.92-9.82-14.43-18.66.8-6.67 6.1-12.48 12.69-13.84m.18 4.49c-5.66 1.5-9.44 7.63-8.52 13.38.86 6.49 7.61 11.5 14.09 10.11 6.06-.93 10.59-7.11 9.83-13.16-.55-7.2-8.48-12.67-15.4-10.33Z" opacity="1.00"/><path fill="#04207c" d="M46.39 19.68c6.92-2.34 14.85 3.13 15.4 10.33.76 6.05-3.77 12.23-9.83 13.16-6.48 1.39-13.23-3.62-14.09-10.11-.92-5.75 2.86-11.88 8.52-13.38m4.9 2.44c.01 1.37.01 2.75.03 4.12 1.1.67 2.19 1.37 3.29 2.05 1.13-.47 2.26-.93 3.38-1.4-1.68-2.29-3.91-4.05-6.7-4.77m-9.23 4.2c.15 1.54 2.1 1.36 3.1 2.04 1.06-.82 2.12-1.62 3.19-2.41l-.04-3.83c-2.43.77-4.79 2.02-6.25 4.2m6.41 3.19c-2.26 1.4.21 5.39 2.37 3.66 3-1.23-.12-5.76-2.37-3.66m-7.77.37c-.19 2.86.8 5.55 2.4 7.89l2.46-3.06c-.38-1.2-.75-2.39-1.11-3.59-1.25-.42-2.5-.83-3.75-1.24m14.57 1.11c-.41 1.22-.83 2.45-1.27 3.66.82.94 1.37 2.4 2.83 2.39 1.81-1.92 2.05-4.62 2.17-7.12-1.25.35-2.49.71-3.73 1.07m-7.3 5.34c-.76 1.1-1.45 2.23-2.14 3.37 2.67.83 5.52.91 8.12-.24l-2.25-3.09c-1.24 0-2.49-.02-3.73-.04Z" opacity="1.00"/><path fill="#eff" d="M48.47 29.51c2.25-2.1 5.37 2.43 2.37 3.66-2.16 1.73-4.63-2.26-2.37-3.66Z" opacity="1.00"/><path fill="#e3f8fc" d="M49.03 50.77c2.72.03 5.4-.51 7.99-1.3-.42.63-1.25 1.9-1.66 2.53H20.13l-.68-1.16c9.86-.01 19.72-.06 29.58-.07Z" opacity="1.00"/></svg>

<?xml version="1.0" encoding="UTF-8" ?>
<!DOCTYPE svg PUBLIC "-//W3C//DTD SVG 1.1//EN" "http://www.w3.org/Graphics/SVG/1.1/DTD/svg11.dtd">
<svg width="200pt" height="52pt" viewBox="0 0 200 52" version="1.1" xmlns="http://www.w3.org/2000/svg">
<g id="#ffffffff">
</g>
<g id="#010100ff">
<path fill="#010100" opacity="1.00" d=" M 0.00 2.11 C 9.61 2.14 19.23 2.07 28.84 2.14 C 28.83 3.56 28.82 4.98 28.80 6.39 C 24.82 6.42 20.83 6.42 16.84 6.39 C 16.90 17.97 16.84 29.55 16.87 41.13 C 15.17 41.13 13.47 41.14 11.77 41.15 C 11.76 29.58 11.75 18.01 11.78 6.44 C 7.85 6.40 3.93 6.40 0.00 6.41 L 0.00 2.11 Z" />
<path fill="#010100" opacity="1.00" d=" M 73.86 2.75 C 79.93 1.74 86.54 1.10 92.36 3.51 C 99.79 6.73 100.15 18.45 93.69 22.83 C 89.48 25.84 83.98 26.05 79.01 25.52 C 78.97 30.73 79.01 35.94 78.99 41.16 C 77.32 41.15 75.64 41.13 73.97 41.13 C 73.90 28.34 74.06 15.54 73.86 2.75 M 79.01 6.20 C 79.04 11.31 78.88 16.43 79.11 21.54 C 82.56 21.72 86.31 22.13 89.44 20.34 C 93.91 17.92 94.54 10.71 90.47 7.63 C 87.12 5.34 82.82 5.84 79.01 6.20 Z" />
</g>
<g id="#000000ff">
<path fill="#000000" opacity="1.00" d=" M 108.52 2.82 C 110.20 2.86 111.89 2.85 113.58 2.88 C 113.55 15.89 113.61 28.89 113.55 41.90 C 111.86 41.86 110.18 41.82 108.49 41.79 C 108.55 28.80 108.51 15.81 108.52 2.82 Z" />
<path fill="#000000" opacity="1.00" d=" M 157.04 2.82 C 158.73 2.84 160.42 2.83 162.11 2.81 C 162.03 15.81 162.04 28.82 162.10 41.82 C 160.40 41.82 158.71 41.81 157.01 41.79 C 157.06 28.80 156.99 15.81 157.04 2.82 Z" />
<path fill="#000000" opacity="1.00" d=" M 177.85 6.67 C 182.71 2.24 190.35 2.57 196.01 5.25 C 195.61 6.53 195.22 7.81 194.83 9.09 C 190.93 7.79 186.38 6.41 182.53 8.60 C 179.47 10.30 178.83 15.04 181.45 17.42 C 185.41 20.86 191.25 21.26 194.93 25.13 C 199.18 29.54 198.28 37.72 193.07 41.01 C 187.37 44.71 179.82 43.89 173.87 41.18 C 174.26 39.75 174.68 38.32 175.05 36.88 C 179.35 38.91 184.62 40.56 189.13 38.23 C 193.02 36.40 193.62 30.34 190.22 27.76 C 186.40 24.62 180.92 24.26 177.44 20.59 C 173.63 16.94 173.83 10.09 177.85 6.67 Z" />
</g>
<g id="#010101ff">
<path fill="#010101" opacity="1.00" d=" M 127.98 2.88 C 129.67 2.85 131.36 2.83 133.05 2.78 C 132.99 14.39 133.00 26.01 133.04 37.62 C 138.60 37.61 144.16 37.65 149.71 37.62 C 149.73 39.02 149.74 40.42 149.76 41.82 C 142.50 41.88 135.24 41.83 127.98 41.85 C 127.97 28.86 127.96 15.87 127.98 2.88 Z" />
</g>
<g id="#072179ff">
<path fill="#072179" opacity="1.00" d=" M 30.45 14.60 C 30.57 13.64 30.67 12.69 30.75 11.73 C 37.87 11.95 44.99 11.51 52.10 11.94 C 61.90 12.83 69.84 22.22 69.21 32.02 C 69.03 39.63 63.95 46.53 57.02 49.47 C 54.43 50.26 51.75 50.80 49.03 50.77 C 39.17 50.78 29.31 50.83 19.45 50.84 C 19.30 49.84 18.89 48.68 19.88 47.95 C 26.39 47.58 32.92 47.90 39.45 47.77 C 38.48 47.03 37.51 46.28 36.54 45.54 C 33.96 45.50 31.37 45.56 28.80 45.32 C 28.59 44.43 28.44 43.53 28.36 42.61 C 30.18 42.55 31.99 42.52 33.81 42.49 C 29.61 36.26 29.38 27.99 32.91 21.41 C 29.74 21.51 26.55 21.51 23.40 21.10 C 23.64 20.49 24.10 19.27 24.33 18.66 C 27.90 18.21 31.50 18.52 35.09 18.40 C 36.49 17.16 37.92 15.95 39.36 14.76 C 36.39 14.78 33.41 14.76 30.45 14.60 M 46.21 15.19 C 39.62 16.55 34.32 22.36 33.52 29.03 C 32.03 37.87 39.07 46.85 47.95 47.69 C 57.43 49.03 66.68 40.60 66.26 31.05 C 66.47 21.02 55.97 12.56 46.21 15.19 Z" />
</g>
<g id="#f9feffff">
<path fill="#f9feff" opacity="1.00" d=" M 46.21 15.19 C 55.97 12.56 66.47 21.02 66.26 31.05 C 66.68 40.60 57.43 49.03 47.95 47.69 C 39.07 46.85 32.03 37.87 33.52 29.03 C 34.32 22.36 39.62 16.55 46.21 15.19 M 46.39 19.68 C 40.73 21.18 36.95 27.31 37.87 33.06 C 38.73 39.55 45.48 44.56 51.96 43.17 C 58.02 42.24 62.55 36.06 61.79 30.01 C 61.24 22.81 53.31 17.34 46.39 19.68 Z" />
</g>
<g id="#04207cff">
<path fill="#04207c" opacity="1.00" d=" M 46.39 19.68 C 53.31 17.34 61.24 22.81 61.79 30.01 C 62.55 36.06 58.02 42.24 51.96 43.17 C 45.48 44.56 38.73 39.55 37.87 33.06 C 36.95 27.31 40.73 21.18 46.39 19.68 M 51.29 22.12 C 51.30 23.49 51.30 24.87 51.32 26.24 C 52.42 26.91 53.51 27.61 54.61 28.29 C 55.74 27.82 56.87 27.36 57.99 26.89 C 56.31 24.60 54.08 22.84 51.29 22.12 M 42.06 26.32 C 42.21 27.86 44.16 27.68 45.16 28.36 C 46.22 27.54 47.28 26.74 48.35 25.95 C 48.34 24.99 48.32 23.07 48.31 22.12 C 45.88 22.89 43.52 24.14 42.06 26.32 M 48.47 29.51 C 46.21 30.91 48.68 34.90 50.84 33.17 C 53.84 31.94 50.72 27.41 48.47 29.51 M 40.70 29.88 C 40.51 32.74 41.50 35.43 43.10 37.77 C 43.92 36.75 44.74 35.73 45.56 34.71 C 45.18 33.51 44.81 32.32 44.45 31.12 C 43.20 30.70 41.95 30.29 40.70 29.88 M 55.27 30.99 C 54.86 32.21 54.44 33.44 54.00 34.65 C 54.82 35.59 55.37 37.05 56.83 37.04 C 58.64 35.12 58.88 32.42 59.00 29.92 C 57.75 30.27 56.51 30.63 55.27 30.99 M 47.97 36.33 C 47.21 37.43 46.52 38.56 45.83 39.70 C 48.50 40.53 51.35 40.61 53.95 39.46 C 53.20 38.43 52.45 37.40 51.70 36.37 C 50.46 36.37 49.21 36.35 47.97 36.33 Z" />
</g>
<g id="#f0ffffff">
</g>
<g id="#fffdffff">
</g>
<g id="#eeffffff">
<path fill="#eeffff" opacity="1.00" d=" M 48.47 29.51 C 50.72 27.41 53.84 31.94 50.84 33.17 C 48.68 34.90 46.21 30.91 48.47 29.51 Z" />
</g>
<g id="#faffffff">
</g>
<g id="#f0feffff">
</g>
<g id="#f3ffffff">
</g>
<g id="#e3f8fcff">
<path fill="#e3f8fc" opacity="1.00" d=" M 49.03 50.77 C 51.75 50.80 54.43 50.26 57.02 49.47 C 56.60 50.10 55.77 51.37 55.36 52.00 L 20.13 52.00 L 19.45 50.84 C 29.31 50.83 39.17 50.78 49.03 50.77 Z" />
</g>
</svg>
